vgo/src/integration-test/resources/baseline/dribbble_ball_mark_optimized.svg

<svg xmlns="http://www.w3.org/2000/svg" fill="none" height="100" viewBox="0 0 100 100" width="100"><path clip-rule="evenodd" d="M50,0c-27.603,0-50,22.397-50,50c0,27.603 22.397,50 50,50c27.549,0 50,-22.397 50,-50c0,-27.603-22.451,-50-50,-50Zm33.026,23.048c5.965,7.267 9.545,16.54 9.653,26.573c-1.41-.271-15.51,-3.145-29.718,-1.356c-.325-.705-.597,-1.464-.922,-2.223c-.868,-2.061-1.844,-4.176-2.82,-6.182c15.727,-6.399 22.885,-15.618 23.807,-16.811Zm-33.026,-15.672c10.846,0 20.77,4.067 28.308,10.738c-.759,1.085-7.213,9.707-22.397,15.401c-6.996,-12.852-14.751,-23.373-15.944,-25c3.2-.759 6.562,-1.139 10.033,-1.139Zm-18.167,4.013c1.139,1.518 8.731,12.093 15.835,24.675c-19.957,5.314-37.581,5.206-39.479,5.206c2.766,-13.232 11.714,-24.241 23.644,-29.881Zm-24.566,38.666c0-.434 0-.868 0,-1.301c1.844.054 22.56.325 43.872,-6.074c1.247,2.386 2.386,4.826 3.471,7.267c-.542.163-1.139.325-1.681.488c-22.017,7.104-33.731,26.519-34.707,28.145c-6.779,-7.538-10.954,-17.57-10.954,-28.525Zm42.733,42.679c-9.87,0-18.98,-3.362-26.193,-9.002c.759,-1.573 9.436,-18.276 33.514,-26.681c.109-.054 .163-.054 .271-.109c6.019,15.564 8.46,28.633 9.111,32.375c-5.152,2.223-10.792,3.416-16.703,3.416Zm23.807,-7.321c-.434,-2.603-2.712,-15.076-8.297,-30.423c13.395,-2.115 25.108,1.356 26.573,1.844c-1.844,11.876-8.677,22.126-18.275,28.579Z" fill="#444" fill-rule="evenodd"/></svg>

<svg xmlns="http://www.w3.org/2000/svg" fill="none" height="100" viewBox="0 0 100 100" width="100"><path clip-rule="evenodd" d="m50,0C22.397,0 0,22.397 0,50c0,27.603 22.397,50 50,50c27.549,0 50,-22.397 50,-50C100,22.397 77.549,0 50,0Zm33.026,23.048c5.965,7.267 9.545,16.54 9.653,26.573c-1.41-.271-15.51,-3.145-29.718,-1.356c-.325-.705-.597,-1.464-.922,-2.223c-.868,-2.061-1.844,-4.176-2.82,-6.182C74.946,33.46 82.104,24.241 83.026,23.048ZM50,7.375c10.846,0 20.77,4.067 28.308,10.738c-.759,1.085-7.213,9.707-22.397,15.401C48.915,20.662 41.16,10.141 39.967,8.514C43.167,7.755 46.529,7.375 50,7.375Zm-18.167,4.013c1.139,1.518 8.731,12.093 15.835,24.675c-19.957,5.314-37.581,5.206-39.479,5.206C10.954,28.037 19.902,17.028 31.833,11.388ZM7.267,50.054c0-.434 0-.868 0,-1.301c1.844.054 22.56.325 43.872,-6.074c1.247,2.386 2.386,4.826 3.471,7.267c-.542.163-1.139.325-1.681.488c-22.017,7.104-33.731,26.519-34.707,28.145C11.443,71.041 7.267,61.009 7.267,50.054ZM50,92.733c-9.87,0-18.98,-3.362-26.193,-9.002c.759,-1.573 9.436,-18.276 33.514,-26.681c.109-.054 .163-.054 .271-.109c6.019,15.564 8.46,28.633 9.111,32.375C61.551,91.54 55.911,92.733 50,92.733Zm23.807,-7.321c-.434,-2.603-2.712,-15.076-8.297,-30.423c13.395,-2.115 25.108,1.356 26.573,1.844c-1.844,11.876-8.677,22.126-18.275,28.579Z" fill="#444" fill-rule="evenodd"/></svg>
